X: 1
T: The Muckin' o' Geordie's Byre
R: jig
B: RSCDS 5-6
Z: 1997 by John Chambers <jc@trillian.mit.edu>
N: In Oswald's "Curious Scots Tunes" 1742
M: 6/8
L: 1/8
K: D
|: dcB  \
| "D"A>AA A<FA | d2e f2a | "A7"g2e "D"f2d | "G"efd B2d \
| "D"A>AA A<FA | d2e f2g | afd "A7"e2f | "D"d3 :|
|: def \
| "G"gdg "(A)"gag | "D"fdf "(Bm)"fgf | "Em"ede "A7"efg | "D"fed "G"B2d \
| "D"A>AA A<FA | d2e f2g | afd "A7"e2f | "D"d3 :|
